X: 5307
T: Brown-Sailed Boat, The
R: strathspey
M: 4/4
K: Edorian
B<E B>A B<E B>c|d>B A>G F>D (3FGA|B<E B>A B<E B>A|(3Bcd FA G<E E2:|
g>f e>f g<e b>g|f>e d>e f<d a>f|g>f e>f g<e b>g|f>e ^d>b g<e e2|
g>f e>f (3gab (3efg|f>e d>e (3fga (3def|(3gab (3fga (3efg (3ded|(3Bcd FA G<E E2|

